Papirus/16x16/apps/pulseeffects.svg

<svg width="16" height="16" version="1" xmlns="http://www.w3.org/2000/svg">
 <rect transform="matrix(0,-1,-1,0,0,0)" x="-16" y="-16" width="16" height="16" rx=".857" ry=".857" style="fill:#4f4f4f"/>
 <path d="m3 3c-0.554 0-1 0.3717-1 0.8333v8.3337c0 0.461 0.446 0.833 1 0.833s1-0.372 1-0.833v-8.3337c0-0.4616-0.446-0.8333-1-0.8333z" opacity=".3"/>
 <path d="m3 6.1667c-0.554 0-1 0.3717-1 0.8333v5.167c0 0.461 0.446 0.833 1 0.833s1-0.372 1-0.833v-5.167c0-0.4616-0.446-0.8333-1-0.8333z" style="fill:#00ab43"/>
 <path d="m5 6a2 2 0 0 1-2 2 2 2 0 0 1-2-2 2 2 0 0 1 2-2 2 2 0 0 1 2 2z" style="fill:#828282"/>
 <path d="m8 3c-0.554 0-1 0.3717-1 0.8333v8.3337c0 0.461 0.446 0.833 1 0.833s1-0.372 1-0.833v-8.3337c0-0.4616-0.446-0.8333-1-0.8333z" opacity=".3"/>
 <path d="m8 10.167c-0.554 0-1 0.371-1 0.833v1.167c0 0.461 0.446 0.833 1 0.833s1-0.372 1-0.833v-1.167c0-0.462-0.446-0.833-1-0.833z" style="fill:#00ab43"/>
 <path d="m10 10a2 2 0 0 1-2 2 2 2 0 0 1-2-2 2 2 0 0 1 2-2 2 2 0 0 1 2 2z" style="fill:#828282"/>
 <path d="m13 3c-0.554 0-1 0.37167-1 0.83333v8.3333c0 0.461 0.446 0.833 1 0.833s1-0.37167 1-0.83333v-8.3337c0-0.4616-0.446-0.8333-1-0.8333z" opacity=".3"/>
 <path d="m13 8.1674c-0.554 0-1 0.3717-1 0.8333v3.1663c0 0.461 0.446 0.833 1 0.833s1-0.372 1-0.834v-3.166c0-0.4616-0.446-0.8333-1-0.8333z" style="fill:#00ab43"/>
 <path d="m15 8a2 2 0 0 1-2 2 2 2 0 0 1-2-2 2 2 0 0 1 2-2 2 2 0 0 1 2 2z" style="fill:#828282"/>
</svg>

<svg xmlns="http://www.w3.org/2000/svg" width="16" height="16" version="1">
 <rect width="16" height="16" x="-16" y="-16" rx=".857" ry=".857" transform="matrix(0,-1,-1,0,0,0)" style="fill:#5e5e5e"/>
 <path opacity=".3" d="m3 3c-0.554 0-1 0.3717-1 0.8333v8.3337c0 0.461 0.446 0.833 1 0.833s1-0.372 1-0.833v-8.3337c0-0.4616-0.446-0.8333-1-0.8333z"/>
 <path d="M 3,6.1667 C 2.446,6.1667 2,6.5384 2,7 V 12.167 C 2,12.628 2.446,13 3,13 3.554,13 4,12.628 4,12.167 V 7 C 4,6.5384 3.554,6.1667 3,6.1667 Z" style="fill:#dca200"/>
 <path d="m5 6a2 2 0 0 1 -2 2 2 2 0 0 1 -2 -2 2 2 0 0 1 2 -2 2 2 0 0 1 2 2z" style="fill:#fec006"/>
 <path opacity=".3" d="m8 3c-0.554 0-1 0.3717-1 0.8333v8.3337c0 0.461 0.446 0.833 1 0.833s1-0.372 1-0.833v-8.3337c0-0.4616-0.446-0.8333-1-0.8333z"/>
 <path d="M 8,10.167 C 7.446,10.167 7,10.538 7,11 V 12.167 C 7,12.628 7.446,13 8,13 8.554,13 9,12.628 9,12.167 V 11 C 9,10.538 8.554,10.167 8,10.167 Z" style="fill:#dca200"/>
 <path d="m10 10a2 2 0 0 1 -2 2 2 2 0 0 1 -2 -2 2 2 0 0 1 2 -2 2 2 0 0 1 2 2z" style="fill:#fec006"/>
 <path opacity=".3" d="m13 3c-0.554 0-1 0.37167-1 0.83333v8.3333c0 0.461 0.446 0.833 1 0.833s1-0.37167 1-0.83333v-8.3337c0-0.4616-0.446-0.8333-1-0.8333z"/>
 <path d="M 13,8.1674 C 12.446,8.1674 12,8.5391 12,9.0007 V 12.167 C 12,12.628 12.446,13 13,13 13.554,13 14,12.628 14,12.166 V 9 C 14,8.5384 13.554,8.1667 13,8.1667 Z" style="fill:#dca200"/>
 <path d="m15 8a2 2 0 0 1 -2 2 2 2 0 0 1 -2 -2 2 2 0 0 1 2 -2 2 2 0 0 1 2 2z" style="fill:#fec006"/>
</svg>
